source/img/sprite/ruble.svg

<svg width="24" height="34" viewBox="0 0 24 34" fill="none" xmlns="http://www.w3.org/2000/svg">
<path fill-rule="evenodd" clip-rule="evenodd" d="M14.8 5.21429H8V13.8571H14.8C17.2301 13.8571 19.2 11.9224 19.2 9.53571C19.2 7.14906 17.2301 5.21429 14.8 5.21429ZM3.2 0.5V18.5714H14.8C19.881 18.5714 24 14.526 24 9.53571C24 4.54543 19.881 0.5 14.8 0.5H3.2Z" fill="#102654"/>
<path fill-rule="evenodd" clip-rule="evenodd" d="M0 13.8571H4.8V18.5714H0V13.8571Z" fill="#102654"/>
<path fill-rule="evenodd" clip-rule="evenodd" d="M2.92683 22.7526V14.6429H7.72683V22.7526H16.8V27.4668H7.72683V33.5H2.92683V27.4668H0V22.7526H2.92683Z" fill="#102654"/>
</svg>

<svg width="24" height="34" viewBox="0 0 24 34" fill="none" xmlns="http://www.w3.org/2000/svg">
  <path fill-rule="evenodd" clip-rule="evenodd" d="M14.8 5.214H8v8.643h6.8c2.43 0 4.4-1.935 4.4-4.321 0-2.387-1.97-4.322-4.4-4.322ZM3.2.5v18.071h11.6c5.081 0 9.2-4.045 9.2-9.035S19.881.5 14.8.5H3.2Z" fill="#102654"/>
  <path fill-rule="evenodd" clip-rule="evenodd" d="M0 13.857h4.8v4.714H0v-4.714Z" fill="#102654"/>
  <path fill-rule="evenodd" clip-rule="evenodd" d="M2.927 22.753v-8.11h4.8v8.11H16.8v4.714H7.727V33.5h-4.8v-6.033H0v-4.714h2.927Z" fill="#102654"/>
</svg>
